T: Caoineadh Na DTri Muire
M: 4/4
L: 1/8
K: Gmaj
|:GE|D3 E/G/ A3 G/A/|B2 A2 G2 E<G|c2 cA Bd de/d/|B2 AG (A2 A)G/A/|
B2 d4 ed|d2 BA GE/D/ E<G| B5 AG|A5 GE|D3E G2 G2:||
